packages/core/src/svgs/tokens/branded/CARBON.svg

<svg width="24" height="24" viewBox="0 0 24 24" fill="none" xmlns="http://www.w3.org/2000/svg">
<path fill-rule="evenodd" clip-rule="evenodd" d="M12 21.4117C14.4961 21.4117 16.8901 20.4202 18.6551 18.6551C20.4202 16.89 21.4117 14.4961 21.4117 12C21.4117 9.50377 20.4202 7.10991 18.6551 5.34487C16.8901 3.57982 14.4961 2.58823 12 2.58823C9.5039 2.58823 7.10991 3.57982 5.34487 5.34487C3.57983 7.10991 2.58823 9.50377 2.58823 12C2.58823 14.4961 3.57983 16.89 5.34487 18.6551C7.10991 20.4202 9.5039 21.4117 12 21.4117ZM12 22C14.6522 22 17.1957 20.9464 19.0711 19.071C20.9464 17.1957 22 14.6522 22 12C22 9.34785 20.9464 6.80429 19.0711 4.92892C17.1957 3.05357 14.6522 2 12 2C9.34784 2 6.80429 3.05357 4.92892 4.92892C3.05357 6.80429 2 9.34785 2 12C2 14.6522 3.05357 17.1957 4.92892 19.071C6.80429 20.9464 9.34784 22 12 22Z" fill="#A4A4A4"/>
<path d="M16.953 12.2944C16.8236 13.9003 15.8529 16.7061 12.6941 16.7061C10.4588 16.7061 8.28238 14.4297 6.71767 13.0179C6.51768 12.8238 6.11768 12.3414 6.11768 12.0003C6.11768 11.6591 6.51768 11.1768 6.71767 10.9825C8.28238 9.57088 10.4647 7.29437 12.6941 7.29437C15.8117 7.29437 16.8 10.0944 16.9471 11.7062H21.4117V12.2944H16.953ZM15.9589 11.7062C16.0588 11.7062 16.1353 11.6179 16.1177 11.5178C15.9177 10.1708 15.0412 7.88261 12.5883 7.88261C11.5824 7.88261 10.4176 8.7826 9.84707 9.17673C9.83334 9.18644 9.82195 9.199 9.81344 9.21352C9.80507 9.22806 9.79985 9.24423 9.79807 9.26096C9.79642 9.2777 9.79834 9.29459 9.80383 9.31051C9.80918 9.32643 9.81797 9.34098 9.8295 9.35319L11.9295 11.7062H15.9589ZM10.3824 11.7062C10.5295 11.7062 10.6 11.5237 10.5 11.412L9.07649 9.76496C8.43532 10.3062 7.47061 10.9884 7.00002 11.7062H10.3824ZM16.1236 12.4826C16.1412 12.3825 16.0176 12.2944 15.9236 12.2944C15.7353 12.2944 15.6059 12.3709 15.4707 12.5061L12.2765 16.0943C12.3824 16.112 12.4883 16.1179 12.5883 16.1179C15.0765 16.1179 15.9412 13.8237 16.1236 12.4826ZM13.8824 12.9826C14.0882 12.7649 13.9412 12.2944 13.6471 12.2944H7.00002C8.31061 13.663 9.79367 14.8553 11.4118 15.8414L13.8824 12.9826Z" fill="#FCFCFC"/>
</svg>

<svg xmlns="http://www.w3.org/2000/svg" width="24" height="24" fill="none" viewBox="0 0 24 24">
    <path fill="#A4A4A4" fill-rule="evenodd" d="M12 21.412a9.411 9.411 0 1 0 0-18.823 9.411 9.411 0 0 0 0 18.823M12 22a10 10 0 1 0 0-20 10 10 0 0 0 0 20" clip-rule="evenodd"/>
    <path fill="#FCFCFC" d="M16.953 12.294c-.13 1.606-1.1 4.412-4.259 4.412-2.235 0-4.412-2.276-5.976-3.688-.2-.194-.6-.677-.6-1.018s.4-.823.6-1.018c1.564-1.411 3.747-3.688 5.976-3.688 3.118 0 4.106 2.8 4.253 4.412h4.465v.588zm-.994-.588a.16.16 0 0 0 .159-.188c-.2-1.347-1.077-3.635-3.53-3.635-1.006 0-2.17.9-2.74 1.294a.12.12 0 0 0-.019.176l2.1 2.353zm-5.577 0c.148 0 .218-.182.118-.294L9.076 9.765c-.64.541-1.605 1.223-2.076 1.941zm5.742.777c.017-.1-.106-.189-.2-.189-.189 0-.318.077-.453.212l-3.194 3.588q.16.025.311.024c2.489 0 3.353-2.294 3.536-3.635m-2.242.5c.206-.218.06-.689-.235-.689H7a22 22 0 0 0 4.412 3.547z"/>
</svg>
